X: 84
M: 2/4
L: 1/16
K: D
"Slow"DEFG |\
f2d2 d2cd | e2A2 f2A2 | d2A2 A2Bc | d3A A2A2 | f2d2 d2cd | efed c2B2 | A4 :|


